X:42
T:Eddie Littleton's Libation
S:American Veteran Fifer #42
M:6/8
L:1/8
Q:1/8=300
K:D 
%%MIDI program 72
%%MIDI transpose 8
%%MIDI ratio 3 1
|: F | B>cd efg | (fb)g f2 d/e/ | (fa)f ede | fdB cAF |
B>cd efg | (fb)g f2 d/e/ | faf edc | B2z z2 :|
|: z | {g}a6 | {a}bza fde | {d}f6 | {f}azf eAB |
d3- dfA | d3- dfA | (df)A (df)A | def gab |
a6 | {a}bzg fde | {d}f6 | {f}azf dAB |
d3- dfA | d3- dfA | (df)A (df)A | d2z z2 :|


